X:1
T:Dominus Regit Me, 87.87
T:Dominus Regit Me, 87.87
T:John  Bacchus Dykes, 1868
T:Public Domain Courtesy of the Cyber Hymnal™
C:John  Bacchus Dykes, 1868
Z:Public Domain
Z:Courtesy of the Cyber Hymnal™
%%score ( 1 2 ) ( 3 4 )
L:1/8
Q:1/4=112
M:4/4
K:G
V:1 treble 
V:2 treble 
V:3 bass 
V:4 bass 
V:1
 [DB]2 | [Fd]2 [Ec]2 [DB]2 [GB]2 | [GA]2 [FA]2 [EG]2 D2 | D3 [DE] [^CF]2 [CG]2 | B4 [FA]3 [Gd]2 | %5
 [Gc]2 (BA) [GB]2 [EB]2 | [EA]2 (GF) [EG]2 E2 | [CD]3 [CE] [B,F]2 [DG]2 | (B2 A2) !fermata!G2 |] %9
V:2
 x2 | x8 | x6 D2 | x8 | (D2 G2) x5 | x2 F2 x4 | x2 ^D2 x (B,C) x | x8 | F4 G2 |] %9
V:3
 [G,B,]2 | [D,A,]2 ([E,G,][F,A,]) [G,B,]2 D2 | (CB,) [D,C]2 [E,B,]2 (A,C) | %3
 [G,C]2 [G,B,]2 [E,A,]2 [E,G,]2 | (G,3 B,) [D,D]3 [B,D]2 | [A,E]2 [D,D]2 [G,D]2 [G,B,]2 | %6
 [F,C]2 [B,,B,]2 [E,B,]2 G,2 | [D,F,]3 [D,G,] [D,A,]2 [D,B,]2 | [D,C]4 !fermata![G,,G,B,]2 |] %9
V:4
 x2 | x6 (B,,C,) | D,2 x3 F,2 x | x8 | D,4 x5 | x8 | x6 (E,C,) | x8 | x6 |] %9

